SVG_Azure_Grouped/Management/Resource Guard.svg

<?xml version="1.0" encoding="UTF-8" standalone="no"?>
<!-- Generated by Microsoft Visio, SVG Export Resource Guard.svg Page-1 -->

<svg
   xmlns:dc="http://purl.org/dc/elements/1.1/"
   xmlns:cc="http://creativecommons.org/ns#"
   xmlns:rdf="http://www.w3.org/1999/02/22-rdf-syntax-ns#"
   xmlns:svg="http://www.w3.org/2000/svg"
   xmlns="http://www.w3.org/2000/svg"
   xmlns:sodipodi="http://sodipodi.sourceforge.net/DTD/sodipodi-0.dtd"
   xmlns:inkscape="http://www.inkscape.org/namespaces/inkscape"
   width="0.66930193in"
   height="0.78731233in"
   viewBox="0 0 48.189624 56.686798"
   xml:space="preserve"
   class="st6"
   version="1.1"
   id="svg63"
   sodipodi:docname="Resource Guard.svg"
   style="font-size:12px;overflow:visible;color-interpolation-filters:sRGB;fill:none;fill-rule:evenodd;stroke-linecap:square;stroke-miterlimit:3"
   inkscape:version="0.92.5 (2060ec1f9f, 2020-04-08)"><metadata
   id="metadata67"><rdf:RDF><cc:Work
       rdf:about=""><dc:format>image/svg+xml</dc:format><dc:type
         rdf:resource="http://purl.org/dc/dcmitype/StillImage" /></cc:Work></rdf:RDF></metadata><sodipodi:namedview
   pagecolor="#ffffff"
   bordercolor="#666666"
   borderopacity="1"
   objecttolerance="10"
   gridtolerance="10"
   guidetolerance="10"
   inkscape:pageopacity="0"
   inkscape:pageshadow="2"
   inkscape:window-width="640"
   inkscape:window-height="480"
   id="namedview65"
   showgrid="false"
   inkscape:zoom="1.4193119"
   inkscape:cx="32.125826"
   inkscape:cy="37.781926"
   inkscape:window-x="0"
   inkscape:window-y="0"
   inkscape:window-maximized="0"
   inkscape:current-layer="svg63" />
	<style
   type="text/css"
   id="style2">
	<![CDATA[
		.st1 {fill:#0078d4;stroke:none;stroke-linecap:butt;stroke-width:34}
		.st2 {fill:url(#grad0-8);stroke:none;stroke-linecap:butt;stroke-width:34}
		.st3 {fill:#50e6ff;stroke:none;stroke-linecap:butt;stroke-width:34}
		.st4 {fill:#c3f1ff;stroke:none;stroke-linecap:butt;stroke-width:34}
		.st5 {fill:#9cebff;stroke:none;stroke-linecap:butt;stroke-width:34}
		.st6 {fill:none;fill-rule:evenodd;font-size:12px;overflow:visible;stroke-linecap:square;stroke-miterlimit:3}
	]]>
	</style>

	<defs
   id="Patterns_And_Gradients">
		<linearGradient
   id="grad0-8"
   x1="-0.021128543"
   y1="70.162135"
   x2="44.94219"
   y2="70.162135"
   gradientTransform="scale(0.92318598,1.0832054)"
   gradientUnits="userSpaceOnUse">
			<stop
   offset="0"
   stop-color="#0078d4"
   stop-opacity="1"
   id="stop4" />
			<stop
   offset="0.06"
   stop-color="#0a7cd7"
   stop-opacity="1"
   id="stop6" />
			<stop
   offset="0.34"
   stop-color="#2e8ce1"
   stop-opacity="1"
   id="stop8" />
			<stop
   offset="0.59"
   stop-color="#4897e9"
   stop-opacity="1"
   id="stop10" />
			<stop
   offset="0.82"
   stop-color="#589eed"
   stop-opacity="1"
   id="stop12" />
			<stop
   offset="1"
   stop-color="#5ea0ef"
   stop-opacity="1"
   id="stop14" />
		</linearGradient>
	</defs>
	<g
   id="g61"
   transform="translate(-34.000455,-34.0043)">
		<title
   id="title18">Page-1</title>
		<g
   id="group12110-1"
   transform="translate(34,-34.0157)">
			<title
   id="title20">Resource Guard.12110</title>
			<g
   id="group12111-2">
				<title
   id="title22">Sheet.12111</title>
				<g
   id="shape12112-3">
					<title
   id="title24">Sheet.12112</title>
					<path
   d="m 48.19,94.48 c 0,15.24 -19.13,27.51 -23.31,30 a 1.44683,1.41762 0 0 1 -1.57,0 C 19.13,122.02 0,109.75 0,94.48 V 76.15 a 1.49827,1.46802 0 0 1 1.47,-1.47 c 14.91,-0.36 11.46,-6.66 22.62,-6.66 11.17,0 7.72,6.3 22.63,6.66 a 1.49827,1.46802 0 0 1 1.47,1.47 z"
   class="st1"
   id="path26"
   inkscape:connector-curvature="0"
   style="fill:#0078d4;stroke:none;stroke-width:34;stroke-linecap:butt" />
				</g>
				<g
   id="shape12113-5"
   transform="translate(3.35342,-3.99961)">
					<title
   id="title29">Sheet.12113</title>
					<path
   d="m 41.48,98.73 c 0,13.13 -16.46,23.67 -20.07,25.79 a 1.28607,1.2601 0 0 1 -1.34,0 C 16.46,122.4 0,111.86 0,98.73 V 83.1 A 1.30536,1.27901 0 0 1 1.06,81.62 1.18318,1.1593 0 0 1 1.28,81.6 C 14.1,81.38 11.17,76 20.74,76 c 9.58,0 6.64,5.38 19.47,5.6 a 1.30857,1.28216 0 0 1 1.28,1.26 z"
   class="st2"
   id="path31"
   inkscape:connector-curvature="0"
   style="fill:url(#grad0-8);stroke:none;stroke-width:34;stroke-linecap:butt" />
				</g>
				<g
   id="shape12114-9"
   transform="translate(24.1266,-15.9474)">
					<title
   id="title34">Sheet.12114</title>
					<path
   d="m 10.84,106.07 v 12.38 L 0,124.71 v -12.45 z"
   class="st3"
   id="path36"
   inkscape:connector-curvature="0"
   style="fill:#50e6ff;stroke:none;stroke-width:34;stroke-linecap:butt" />
				</g>
				<g
   id="shape12115-11"
   transform="translate(13.2272,-28.3343)">
					<title
   id="title39">Sheet.12115</title>
					<path
   d="M 21.73,118.45 10.9,124.71 0,118.45 10.9,112.2 Z"
   class="st4"
   id="path41"
   inkscape:connector-curvature="0"
   style="fill:#c3f1ff;stroke:none;stroke-width:34;stroke-linecap:butt" />
				</g>
				<g
   id="shape12116-13"
   transform="translate(13.2272,-15.9474)">
					<title
   id="title44">Sheet.12116</title>
					<path
   d="m 10.9,112.32 v 12.39 L 0,118.45 v -12.38 z"
   class="st5"
   id="path46"
   inkscape:connector-curvature="0"
   style="fill:#9cebff;stroke:none;stroke-width:34;stroke-linecap:butt" />
				</g>
				<g
   id="shape12117-15"
   transform="translate(13.2272,-15.9474)">
					<title
   id="title49">Sheet.12117</title>
					<path
   d="m 0,118.45 10.9,-6.19 v 12.45 z"
   class="st4"
   id="path51"
   inkscape:connector-curvature="0"
   style="fill:#c3f1ff;stroke:none;stroke-width:34;stroke-linecap:butt" />
				</g>
				<g
   id="shape12118-17"
   transform="translate(24.1266,-15.9474)">
					<title
   id="title54">Sheet.12118</title>
					<path
   d="M 10.84,118.45 0,112.26 v 12.45 z"
   class="st5"
   id="path56"
   inkscape:connector-curvature="0"
   style="fill:#9cebff;stroke:none;stroke-width:34;stroke-linecap:butt" />
				</g>
			</g>
		</g>
	</g>
</svg>

<?xml version="1.0" encoding="UTF-8" standalone="no"?>
<!DOCTYPE svg PUBLIC "-//W3C//DTD SVG 1.1//EN" "http://www.w3.org/Graphics/SVG/1.1/DTD/svg11.dtd">
<!-- Generated by Microsoft Visio, SVG Export Resource Guard.svg Page-1 -->
<svg xmlns="http://www.w3.org/2000/svg" xmlns:xlink="http://www.w3.org/1999/xlink" xmlns:ev="http://www.w3.org/2001/xml-events"
		width="1.61374in" height="1.73206in" viewBox="0 0 116.189 124.709" xml:space="preserve" color-interpolation-filters="sRGB"
		class="st6">
	<style type="text/css">
	<![CDATA[
		.st1 {fill:#0078d4;stroke:none;stroke-linecap:butt;stroke-width:34}
		.st2 {fill:url(#grad0-8);stroke:none;stroke-linecap:butt;stroke-width:34}
		.st3 {fill:#50e6ff;stroke:none;stroke-linecap:butt;stroke-width:34}
		.st4 {fill:#c3f1ff;stroke:none;stroke-linecap:butt;stroke-width:34}
		.st5 {fill:#9cebff;stroke:none;stroke-linecap:butt;stroke-width:34}
		.st6 {fill:none;fill-rule:evenodd;font-size:12px;overflow:visible;stroke-linecap:square;stroke-miterlimit:3}
	]]>
	</style>

	<defs id="Patterns_And_Gradients">
		<linearGradient id="grad0-8" x1="0" y1="0" x2="1" y2="0" gradientTransform="rotate(-90 0.5 0.5)">
			<stop offset="0" stop-color="#0078d4" stop-opacity="1"/>
			<stop offset="0.06" stop-color="#0a7cd7" stop-opacity="1"/>
			<stop offset="0.34" stop-color="#2e8ce1" stop-opacity="1"/>
			<stop offset="0.59" stop-color="#4897e9" stop-opacity="1"/>
			<stop offset="0.82" stop-color="#589eed" stop-opacity="1"/>
			<stop offset="1" stop-color="#5ea0ef" stop-opacity="1"/>
		</linearGradient>
	</defs>
	<g>
		<title>Page-1</title>
		<g id="group11831-1" transform="translate(34,-34.0157)">
			<title>Resource Guard.11831</title>
			<g id="group11832-2">
				<title>Sheet.11832</title>
				<g id="shape11833-3">
					<title>Sheet.11833</title>
					<path d="M48.19 94.48 C48.19 109.72 29.06 121.99 24.88 124.48 A1.44683 1.41762 0 0 1 23.31 124.48 C19.13 122.02
								 0 109.75 0 94.48 L0 76.15 A1.49827 1.46802 0 0 1 1.47 74.68 C16.38 74.32 12.93 68.02 24.09 68.02
								 C35.26 68.02 31.81 74.32 46.72 74.68 A1.49827 1.46802 0 0 1 48.19 76.15 L48.19 94.48 Z"
							class="st1"/>
				</g>
				<g id="shape11834-5" transform="translate(3.35342,-3.99961)">
					<title>Sheet.11834</title>
					<path d="M41.48 98.73 C41.48 111.86 25.02 122.4 21.41 124.52 A1.28607 1.2601 0 0 1 20.07 124.52 C16.46 122.4
								 0 111.86 0 98.73 L0 83.1 A1.30536 1.27901 0 0 1 1.06 81.62 A1.18318 1.1593 0 0 1 1.28 81.6 C14.1
								 81.38 11.17 76 20.74 76 C30.32 76 27.38 81.38 40.21 81.6 A1.30857 1.28216 0 0 1 41.49 82.86 L41.48
								 98.73 Z" class="st2"/>
				</g>
				<g id="shape11835-9" transform="translate(24.1266,-15.9474)">
					<title>Sheet.11835</title>
					<path d="M10.84 106.07 L10.84 118.45 L0 124.71 L0 112.26 L10.84 106.07 Z" class="st3"/>
				</g>
				<g id="shape11836-11" transform="translate(13.2272,-28.3343)">
					<title>Sheet.11836</title>
					<path d="M21.73 118.45 L10.9 124.71 L0 118.45 L10.9 112.2 L21.73 118.45 Z" class="st4"/>
				</g>
				<g id="shape11837-13" transform="translate(13.2272,-15.9474)">
					<title>Sheet.11837</title>
					<path d="M10.9 112.32 L10.9 124.71 L0 118.45 L0 106.07 L10.9 112.32 Z" class="st5"/>
				</g>
				<g id="shape11838-15" transform="translate(13.2272,-15.9474)">
					<title>Sheet.11838</title>
					<path d="M0 118.45 L10.9 112.26 L10.9 124.71 L0 118.45 Z" class="st4"/>
				</g>
				<g id="shape11839-17" transform="translate(24.1266,-15.9474)">
					<title>Sheet.11839</title>
					<path d="M10.84 118.45 L0 112.26 L0 124.71 L10.84 118.45 Z" class="st5"/>
				</g>
			</g>
		</g>
	</g>
</svg>
